src/assets/protocols/bulla.svg

<svg width="40" height="40" viewBox="0 0 40 40" fill="none" xmlns="http://www.w3.org/2000/svg">
<rect width="40" height="40" rx="8" fill="white"/>
<path fill-rule="evenodd" clip-rule="evenodd" d="M29.3255 6.44378C29.0467 7.76917 28.9156 8.18552 28.5292 8.97268C27.768 10.5233 25.8637 12.321 24.006 13.2428C22.0694 14.2035 19.9878 14.6064 16.4412 14.7068C12.0083 14.8325 9.66603 14.4535 7.19527 13.211C4.4991 11.8552 2.90797 10.1412 2.14924 7.77562C1.93392 7.10403 1.72127 6.46004 1.67658 6.34446C1.63203 6.22889 1.57571 6.53779 1.55134 7.03104C1.50147 8.04459 1.85547 9.40682 2.50044 10.6823C3.68 13.0148 6.10831 15.1485 9.30866 16.6646C10.034 17.0082 10.6275 17.3091 10.6275 17.3335C10.6275 17.3577 10.4722 17.7168 10.2824 18.1313C9.35769 20.1511 9.81943 22.4941 11.4693 24.1546C13.2642 25.9609 15.56 26.3895 17.8432 25.3441C18.6829 24.9597 19.757 24.0339 20.2202 23.2953C21.0685 21.9432 21.2348 20.0297 20.6526 18.3221C20.4686 17.7828 20.3284 17.3372 20.3409 17.332C24.8 15.4587 27.4856 13.2045 28.8542 10.186C29.5022 8.75722 29.9097 6.36309 29.5436 6.13685C29.4688 6.09062 29.3706 6.22875 29.3255 6.44378ZM16.4546 17.3377C18.0671 17.8165 19.047 19.883 18.3981 21.436C17.851 22.7453 16.8361 23.4354 15.4576 23.4354C13.6013 23.4354 12.3147 22.1737 12.3147 20.3534C12.3147 18.9737 13.1882 17.7277 14.426 17.3416C15.2335 17.0899 15.6177 17.0891 16.4546 17.3377Z" fill="#3F8A68"/>
<path fill-rule="evenodd" clip-rule="evenodd" d="M29.3267 6.35321C29.2756 6.51417 29.2642 6.67654 29.3016 6.7138C29.4194 6.83162 28.6246 8.90873 28.2116 9.56252C27.3533 10.9213 25.6276 12.4331 24.006 13.2469C23.3495 13.5764 21.8337 14.0675 20.2235 14.4727C19.8079 14.5772 18.1723 14.6761 16.2017 14.7159C12.6506 14.7874 11.1041 14.6368 9.09257 14.0231C6.87972 13.348 4.27377 11.5643 3.20839 9.9954C2.61287 9.11844 1.80175 7.20173 1.80175 6.67136C1.80175 6.50073 1.73409 6.31945 1.65144 6.26832C1.40908 6.11856 1.53544 7.97559 1.83271 8.93282C2.86783 12.2661 5.27177 14.7526 9.30859 16.6648C10.034 17.0084 10.6274 17.3093 10.6274 17.3337C10.6274 17.3579 10.4722 17.717 10.2824 18.1315C9.35762 20.1513 9.81936 22.4943 11.4692 24.1548C13.2642 25.9611 15.56 26.3897 17.8431 25.3443C18.6828 24.9599 19.7569 24.0341 20.2202 23.2955C21.0684 21.9434 21.2347 20.0299 20.6525 18.3223C20.4686 17.783 20.3283 17.3374 20.3408 17.3322C23.1584 16.1486 25.2481 14.8334 26.6172 13.3819C28.5733 11.3085 29.375 9.61898 29.6325 7.02802C29.7119 6.22965 29.5084 5.78067 29.3267 6.35321ZM16.4546 17.3379C18.0215 17.8032 18.9926 19.7545 18.4506 21.3484C17.7333 23.4574 14.8724 24.1566 13.2364 22.6227C12.3407 21.7827 12.0436 20.1782 12.5699 19.0228C12.8765 18.3492 13.8333 17.4518 14.3713 17.333C14.5851 17.2858 14.8231 17.2261 14.9001 17.2003C15.2223 17.0929 15.8026 17.1443 16.4546 17.3379Z" fill="#3F8A68"/>
<path fill-rule="evenodd" clip-rule="evenodd" d="M29.3268 6.35321C29.2757 6.51418 29.2643 6.67654 29.3017 6.7138C29.4452 6.85725 28.5346 9.10947 28.0465 9.81805C27.003 11.3333 25.0772 12.8373 23.2203 13.5873C21.155 14.4215 19.9072 14.6265 16.3928 14.7093C13.0738 14.7873 11.4675 14.6729 9.8028 14.2396C7.12107 13.5416 4.44171 11.8115 3.19141 9.97033C2.61004 9.1141 1.80186 7.19557 1.80186 6.67136C1.80186 6.50073 1.7342 6.31945 1.65155 6.26832C1.549 6.205 1.5123 6.47915 1.53597 7.13211C1.67088 10.8515 4.57466 14.4222 9.27564 16.6491C10.0191 17.0013 10.6275 17.3107 10.6275 17.3367C10.6275 17.3627 10.4728 17.7176 10.284 18.1254C9.85127 19.0592 9.72743 20.044 9.90535 21.1363C10.1032 22.3505 10.5678 23.2475 11.4693 24.1548C12.3889 25.0801 13.3118 25.5847 14.5196 25.8223C16.0362 26.1207 17.9639 25.562 19.1667 24.4753C20.4158 23.3468 20.9941 22.0648 20.9941 20.4241C20.9941 19.4649 20.6885 18.0483 20.421 17.769C20.1902 17.5277 20.2875 17.3427 20.749 17.1453C23.3562 16.0298 25.2999 14.7785 26.6521 13.3452C28.5518 11.3313 29.3792 9.57779 29.6326 7.02802C29.7121 6.22965 29.5085 5.78067 29.3268 6.35321ZM16.4533 17.3375C16.9035 17.4711 17.3227 17.729 17.6489 18.073C19.6707 20.204 18.3074 23.4356 15.3865 23.4356C12.4571 23.4356 11.1926 19.932 13.4034 17.9406C13.7219 17.6537 14.1575 17.3802 14.3714 17.333C14.5852 17.2858 14.8232 17.2261 14.9002 17.2003C15.2222 17.093 15.8026 17.1442 16.4533 17.3375Z" fill="#3F8A68"/>
<path fill-rule="evenodd" clip-rule="evenodd" d="M29.344 6.28679C29.2057 6.64696 29.2486 6.85583 29.4133 6.62469C29.5264 6.46596 29.5426 6.53223 29.4795 6.89562C29.4335 7.16025 29.3021 7.48063 29.1872 7.60755C29.0724 7.73434 29.0151 7.87485 29.0599 7.91953C29.1958 8.05556 28.2811 9.57932 27.4714 10.5658C26.2683 12.0317 24.1963 13.3809 22.2548 13.9627C22.2162 13.9742 22.1211 14.0244 22.0434 14.0741C21.7922 14.2345 20.2537 14.579 19.1027 14.7324C17.4672 14.9505 13.3214 14.9152 11.748 14.6699C10.309 14.4456 9.15961 14.1694 8.99976 14.0095C8.94457 13.9545 8.79341 13.9093 8.66383 13.9093C8.53411 13.9093 7.87442 13.6245 7.19793 13.2764C5.89846 12.6078 4.47473 11.5567 3.81099 10.7757C3.12062 9.96344 2.9224 9.70582 2.9224 9.62162C2.9224 9.57665 2.79814 9.36526 2.64642 9.15204C2.49456 8.93897 2.41051 8.72435 2.45954 8.67518C2.50871 8.62615 2.46473 8.58594 2.36204 8.58594C2.25935 8.58594 2.21424 8.54686 2.26202 8.49922C2.30965 8.45145 2.25221 8.31599 2.13439 8.19817C2.01644 8.08022 1.9506 7.867 1.98786 7.72439C2.02526 7.58164 2.00397 7.49688 1.94065 7.53597C1.87733 7.57505 1.79874 7.52784 1.76568 7.43104C1.73276 7.33424 1.67574 7.45668 1.63904 7.70296C1.60233 7.94937 1.61676 8.12336 1.67126 8.0896C1.72575 8.05598 1.81359 8.31739 1.86654 8.67041C1.9195 9.02344 2.14812 9.71268 2.37465 10.2022C3.63223 12.9192 5.61002 14.8076 8.92216 16.4541C10.2389 17.1086 10.6325 17.3661 10.579 17.5372C10.5403 17.6608 10.3585 18.1762 10.1748 18.6828C9.8763 19.5063 9.85221 19.7317 9.94705 20.8135C10.0074 21.5021 10.147 22.1664 10.2707 22.3553C10.3903 22.5379 10.4459 22.7295 10.3944 22.7812C10.3427 22.8328 10.374 22.8751 10.4638 22.8751C10.5538 22.8751 10.6273 22.9747 10.6273 23.0964C10.6273 23.4389 12.1728 24.9032 12.9464 25.2934C15.3645 26.5133 18.3188 25.7597 19.9552 23.5055C20.1789 23.1973 20.415 22.9066 20.4798 22.8594C20.5445 22.8123 20.5923 22.7178 20.5859 22.6493C20.5616 22.3928 20.7484 21.6143 20.8344 21.6133C20.994 21.6115 20.9997 20.177 20.8435 19.316C20.7599 18.8548 20.5723 18.2439 20.4266 17.9582C20.1185 17.3543 20.1529 17.3085 21.2041 16.9224C22.2468 16.5397 24.0401 15.5286 25.178 14.6822C25.3744 14.5361 27.2582 12.635 27.6462 12.1911C27.9285 11.8685 28.9784 9.82811 28.9788 9.60159C28.9789 9.50535 29.0264 9.42648 29.0841 9.42648C29.1418 9.42648 29.2017 9.28457 29.2168 9.11128C29.2319 8.93799 29.306 8.48087 29.3814 8.09563C29.6749 6.59499 29.7095 6.23944 29.5701 6.15328C29.4923 6.10523 29.3905 6.16533 29.344 6.28679ZM1.60051 6.38555C1.65319 6.52368 1.7315 6.60143 1.77464 6.55828C1.81779 6.51528 1.77478 6.40222 1.67896 6.3071C1.54055 6.16981 1.52458 6.18593 1.60051 6.38555ZM16.6512 17.3802C17.4547 17.7138 17.8208 18.0427 18.2272 18.7964C18.6959 19.6656 18.7454 20.8179 18.3512 21.6856C18.0823 22.2772 17.1963 23.1553 16.8682 23.1553C16.7617 23.1553 16.6492 23.2313 16.6181 23.3243C16.5811 23.4354 16.2046 23.4955 15.5208 23.4995C14.6556 23.5045 14.3851 23.4475 13.9194 23.1624C12.7184 22.4274 12.2385 21.5903 12.2685 20.2834C12.2993 18.9437 12.8675 18.0836 14.1803 17.3893C14.7212 17.1032 15.973 17.0986 16.6512 17.3802Z" fill="#3F8A68"/>
<path fill-rule="evenodd" clip-rule="evenodd" d="M29.344 6.28679C29.2057 6.64696 29.2486 6.85583 29.4133 6.62469C29.5264 6.46596 29.5426 6.53223 29.4795 6.89562C29.4335 7.16025 29.3021 7.48063 29.1872 7.60755C29.0724 7.73434 29.0151 7.87485 29.0599 7.91953C29.1958 8.05556 28.2811 9.57932 27.4714 10.5658C26.2683 12.0317 24.1963 13.3809 22.2548 13.9627C22.2162 13.9742 22.1211 14.0244 22.0434 14.0741C21.7922 14.2345 20.2537 14.579 19.1027 14.7324C17.4672 14.9505 13.3214 14.9152 11.748 14.6699C10.309 14.4456 9.15961 14.1694 8.99976 14.0095C8.94457 13.9545 8.79341 13.9093 8.66383 13.9093C8.25211 13.9093 6.00157 12.6704 5.07712 11.9348C4.23602 11.2656 2.9224 9.86846 2.9224 9.6432C2.9224 9.58632 2.79814 9.36526 2.64642 9.15204C2.49456 8.93897 2.41051 8.72435 2.45954 8.67518C2.50871 8.62615 2.46473 8.58594 2.36204 8.58594C2.25935 8.58594 2.21424 8.54686 2.26202 8.49922C2.30965 8.45145 2.25221 8.31599 2.13439 8.19817C2.01644 8.08022 1.9506 7.867 1.98786 7.72439C2.02526 7.58164 2.00397 7.49688 1.94065 7.53597C1.87733 7.57505 1.79874 7.52784 1.76568 7.43104C1.73276 7.33424 1.67574 7.45668 1.63904 7.70296C1.60233 7.94937 1.61676 8.12336 1.67126 8.0896C1.72575 8.05598 1.81359 8.31739 1.86654 8.67041C1.9195 9.02344 2.14812 9.71268 2.37465 10.2022C3.63223 12.9192 5.61002 14.8076 8.92216 16.4541C10.2473 17.1128 10.6321 17.3649 10.5752 17.5372C10.5346 17.6608 10.3544 18.1927 10.175 18.7193C9.19127 21.6057 10.9782 24.8646 13.9903 25.6774C16.2006 26.2739 18.5724 25.4104 19.9552 23.5055C20.1789 23.1973 20.415 22.9066 20.4798 22.8594C20.5445 22.8123 20.5923 22.7178 20.5859 22.6493C20.5616 22.3928 20.7484 21.6143 20.8344 21.6133C20.994 21.6115 20.9997 20.177 20.8435 19.316C20.7599 18.8548 20.5723 18.2439 20.4266 17.9582C20.1366 17.3899 20.2009 17.255 20.8539 17.0623C21.7234 16.8058 24.2417 15.4034 25.2562 14.6105C25.5158 14.4076 27.2026 12.7007 27.6469 12.1911C27.9291 11.8675 28.9784 9.82741 28.9788 9.60159C28.9789 9.50535 29.0264 9.42648 29.0841 9.42648C29.1418 9.42648 29.2017 9.28457 29.2168 9.11128C29.2319 8.93799 29.306 8.48087 29.3814 8.09563C29.6749 6.59499 29.7095 6.23944 29.5701 6.15328C29.4923 6.10523 29.3905 6.16533 29.344 6.28679ZM1.60051 6.38555C1.65319 6.52368 1.7315 6.60143 1.77464 6.55828C1.81779 6.51528 1.77478 6.40222 1.67896 6.3071C1.54055 6.16981 1.52458 6.18593 1.60051 6.38555ZM17.1191 17.6011C18.0385 18.1401 18.6093 19.1544 18.6112 20.2529C18.6133 21.5655 18.1529 22.388 17.0014 23.1292C16.203 23.6431 14.7305 23.659 13.9194 23.1624C12.7184 22.4274 12.2385 21.5903 12.2685 20.2834C12.2993 18.9444 12.7727 18.1885 14.0259 17.4766C14.8583 17.0038 16.1914 17.0576 17.1191 17.6011Z" fill="#3F8A68"/>
<path fill-rule="evenodd" clip-rule="evenodd" d="M29.3266 6.35344C29.2755 6.5144 29.2709 6.68349 29.3165 6.72902C29.3621 6.77455 29.4056 6.72257 29.4133 6.61344C29.421 6.50431 29.4778 6.57254 29.5394 6.76516C29.6466 7.09955 29.6522 7.09521 29.6655 6.66836C29.682 6.14078 29.4597 5.93415 29.3266 6.35344ZM1.60051 6.38594C1.65319 6.52407 1.7315 6.60182 1.77464 6.55867C1.81779 6.51566 1.77478 6.40261 1.67896 6.30749C1.54055 6.1702 1.52458 6.18631 1.60051 6.38594ZM28.9327 8.61406C28.4361 9.91409 26.406 12.1274 25.0619 12.8341C24.7122 13.0179 24.1576 13.3104 23.8292 13.4839C23.501 13.6574 23.0816 13.8084 22.8971 13.8195C22.7127 13.8306 22.5878 13.8817 22.6196 13.9331C22.6973 14.0591 21.5923 14.4058 20.2235 14.685C19.3597 14.8612 18.2836 14.9136 15.5305 14.9135C12.4182 14.9135 11.7958 14.8761 10.6974 14.6235C8.90773 14.212 8.79888 14.1751 8.89946 14.0123C8.95396 13.9239 8.92089 13.9089 8.81555 13.9739C8.5837 14.1173 6.81927 13.3641 6.93779 13.1724C6.99088 13.0864 6.96062 13.0677 6.86466 13.127C6.67022 13.2471 5.0547 12.1866 4.25325 11.4128C3.39632 10.5854 2.75611 9.72273 2.8665 9.54412C2.9224 9.45362 2.90433 9.42154 2.8249 9.47057C2.74757 9.51848 2.51544 9.2603 2.30923 8.89676L1.93435 8.2361L2.02751 8.79646C2.14476 9.50167 3.02172 11.2699 3.68589 12.1398C3.96396 12.5042 4.14832 12.8721 4.09565 12.9574C4.03989 13.0476 4.06343 13.0731 4.15182 13.0185C4.30494 12.9239 4.52726 13.159 4.53133 13.4194C4.53245 13.4965 4.59647 13.5596 4.67352 13.5598C4.75057 13.5599 5.20782 13.8884 5.68973 14.2897C6.17164 14.691 6.84939 15.1854 7.19569 15.3884C7.54213 15.5914 7.82553 15.8183 7.82553 15.8926C7.82553 15.9668 7.88857 15.9887 7.96562 15.941C8.04267 15.8934 8.10571 15.9213 8.10571 16.0028C8.10571 16.0843 8.15306 16.1387 8.21078 16.1236C8.2685 16.1084 8.59953 16.2268 8.94625 16.3865C9.29297 16.5464 9.81705 16.762 10.1108 16.8658C10.9009 17.1447 10.9393 17.2608 10.5258 18.1187C10.037 19.1328 9.92226 20.8463 10.2709 21.9261C10.4843 22.5869 11.3929 24.1396 11.6301 24.2488C11.6807 24.272 11.8638 24.4138 12.0368 24.564C12.2098 24.714 12.4084 24.8367 12.4782 24.8367C12.548 24.8367 12.5652 24.9013 12.5164 24.9803C12.4675 25.0592 12.4796 25.1098 12.5432 25.0927C12.7145 25.0463 13.289 25.2609 13.2893 25.3714C13.2894 25.4241 13.5048 25.4824 13.7679 25.5012C14.0309 25.5198 14.4247 25.6059 14.6431 25.6924C15.0788 25.865 15.951 25.9378 15.9509 25.8017C15.9507 25.7544 16.291 25.6476 16.7068 25.5641C17.7021 25.3642 18.7141 24.7255 19.5079 23.7966C20.3353 22.8281 20.7002 21.9615 20.8037 20.7195C20.8747 19.8665 20.8333 19.5726 20.5151 18.6728C20.3107 18.0949 20.13 17.5378 20.1135 17.4345C20.0954 17.3218 20.4462 17.1062 20.994 16.8934C22.0493 16.4836 22.1166 16.4524 22.9552 15.9842C24.0932 15.3489 24.8928 14.7507 26.0138 13.6961C26.6216 13.1244 27.1433 12.6706 27.1734 12.6877C27.2034 12.705 27.2172 12.6977 27.2039 12.6715C27.1905 12.6454 27.485 12.1565 27.8581 11.5851C28.231 11.0137 28.7042 10.042 28.9093 9.42588C29.3118 8.21761 29.3303 7.57292 28.9327 8.61406ZM16.0218 17.1302C15.9726 17.2098 16.0292 17.2329 16.1547 17.1847C16.4038 17.0892 17.3516 17.4963 17.3516 17.6987C17.3516 17.7721 17.4322 17.8322 17.5307 17.8322C17.7477 17.8322 18.0919 18.2194 18.4275 18.8413C18.6029 19.1662 18.6773 19.6149 18.6783 20.3539C18.6794 21.2538 18.6269 21.4849 18.3117 21.9649C16.9637 24.0178 14.6437 24.297 13.0154 22.6021C12.4715 22.036 12.0267 21.0254 12.0302 20.3639C12.0331 19.8012 12.1857 19.3675 12.3459 19.4665C12.4332 19.5205 12.4495 19.4882 12.3866 19.3864C12.1585 19.0174 12.8772 17.8849 13.2174 18.0773C13.2953 18.1212 13.3148 18.1082 13.2607 18.0481C13.1021 17.8722 13.9151 17.2388 14.4857 17.0938C15.0064 16.9616 16.1099 16.9876 16.0218 17.1302Z" fill="#599952"/>
<path fill-rule="evenodd" clip-rule="evenodd" d="M29.3266 6.35344C29.2755 6.5144 29.2709 6.68349 29.3165 6.72902C29.3621 6.77455 29.4056 6.72257 29.4133 6.61344C29.421 6.50431 29.4778 6.57254 29.5394 6.76516C29.6466 7.09956 29.6522 7.09521 29.6655 6.66836C29.682 6.14078 29.4597 5.93415 29.3266 6.35344ZM1.60051 6.38594C1.65319 6.52407 1.7315 6.60182 1.77464 6.55867C1.81779 6.51566 1.77478 6.40261 1.67896 6.30749C1.54055 6.1702 1.52458 6.18631 1.60051 6.38594Z" fill="#3F8A68"/>
<path fill-rule="evenodd" clip-rule="evenodd" d="M29.3077 6.42058C29.262 6.53952 29.2641 6.6761 29.312 6.72415C29.3601 6.7722 29.4057 6.72219 29.4134 6.61306C29.4212 6.50379 29.4779 6.57216 29.5395 6.76478C29.6459 7.09665 29.6524 7.09105 29.6656 6.65971C29.68 6.18985 29.4542 6.03884 29.3077 6.42058Z" fill="#3F8A68"/>
</svg>

<svg xmlns="http://www.w3.org/2000/svg" fill="none" viewBox="0 0 40 40"><rect width="40" height="40" fill="#fff" rx="8"/><path fill="#3F8A68" fill-rule="evenodd" d="M29.326 6.444c-.28 1.325-.41 1.742-.797 2.529-.761 1.55-2.665 3.348-4.523 4.27-1.937.96-4.018 1.363-7.565 1.464-4.433.125-6.775-.254-9.246-1.496-2.696-1.356-4.287-3.07-5.046-5.435a56 56 0 0 0-.472-1.432c-.045-.115-.101.194-.126.687-.05 1.014.304 2.376.95 3.651 1.179 2.333 3.607 4.467 6.808 5.983.725.343 1.319.644 1.319.669 0 .024-.156.383-.346.797-.924 2.02-.463 4.363 1.187 6.024 1.795 1.806 4.091 2.235 6.374 1.19.84-.385 1.914-1.311 2.377-2.05.849-1.352 1.015-3.265.433-4.973-.184-.54-.325-.985-.312-.99 4.459-1.873 7.145-4.128 8.513-7.146.648-1.429 1.056-3.823.69-4.05-.075-.045-.173.093-.218.308M16.455 17.338c1.612.479 2.592 2.545 1.943 4.098-.547 1.31-1.562 2-2.94 2-1.857 0-3.143-1.262-3.143-3.083 0-1.38.873-2.625 2.111-3.011.807-.252 1.192-.253 2.029-.004" clip-rule="evenodd"/><path fill="#3F8A68" fill-rule="evenodd" d="M29.327 6.353c-.051.161-.063.324-.025.36.117.119-.677 2.196-1.09 2.85-.859 1.358-2.584 2.87-4.206 3.684-.657.33-2.172.82-3.782 1.226-.416.104-2.052.203-4.022.243-3.551.071-5.098-.08-7.11-.693-2.212-.675-4.818-2.459-5.884-4.028-.595-.877-1.406-2.793-1.406-3.324 0-.17-.068-.352-.15-.403-.243-.15-.117 1.708.18 2.665 1.036 3.333 3.44 5.82 7.477 7.732.725.343 1.318.644 1.318.669 0 .024-.155.383-.345.797-.924 2.02-.463 4.363 1.187 6.024 1.795 1.806 4.091 2.235 6.374 1.19.84-.385 1.914-1.31 2.377-2.05.848-1.352 1.015-3.265.433-4.973-.184-.539-.325-.985-.312-.99q4.224-1.774 6.276-3.95c1.956-2.073 2.758-3.763 3.015-6.354.08-.798-.124-1.247-.305-.675M16.455 17.338c1.567.465 2.538 2.416 1.996 4.01-.718 2.11-3.579 2.809-5.215 1.275-.895-.84-1.192-2.445-.666-3.6.306-.674 1.263-1.571 1.801-1.69.214-.047.452-.107.53-.133.321-.107.902-.056 1.554.138" clip-rule="evenodd"/><path fill="#3F8A68" fill-rule="evenodd" d="M29.327 6.353c-.051.161-.063.324-.025.36.143.144-.767 2.396-1.255 3.105-1.044 1.515-2.97 3.02-4.827 3.77-2.065.834-3.313 1.039-6.827 1.121-3.32.078-4.926-.036-6.59-.47-2.682-.697-5.361-2.427-6.612-4.269-.581-.856-1.39-2.774-1.39-3.299 0-.17-.067-.352-.15-.403-.102-.063-.139.211-.115.864.135 3.72 3.039 7.29 7.74 9.517.743.352 1.351.662 1.351.688s-.154.38-.343.788c-.433.934-.557 1.919-.379 3.011.198 1.215.663 2.111 1.564 3.019.92.925 1.843 1.43 3.05 1.667 1.517.299 3.445-.26 4.648-1.347 1.249-1.128 1.827-2.41 1.827-4.05 0-.96-.305-2.377-.573-2.656-.23-.241-.133-.426.328-.624 2.607-1.115 4.55-2.367 5.903-3.8 1.9-2.014 2.727-3.767 2.98-6.317.08-.798-.123-1.247-.305-.675M16.453 17.337c.45.134.87.392 1.196.736 2.022 2.131.658 5.363-2.263 5.363-2.929 0-4.193-3.504-1.983-5.495.319-.287.755-.56.968-.608.214-.047.452-.107.53-.133.321-.107.902-.056 1.552.137" clip-rule="evenodd"/><path fill="#3F8A68" fill-rule="evenodd" d="M29.344 6.287c-.138.36-.095.569.07.338.112-.159.129-.093.066.27-.047.265-.178.586-.293.713-.115.126-.172.267-.127.312.136.136-.779 1.66-1.589 2.646-1.203 1.466-3.275 2.815-5.216 3.397a1.2 1.2 0 0 0-.212.111c-.25.16-1.79.505-2.94.658-1.636.219-5.782.183-7.355-.062-1.439-.224-2.588-.5-2.748-.66-.055-.056-.207-.1-.336-.1s-.79-.286-1.466-.634c-1.3-.668-2.723-1.72-3.387-2.5-.69-.813-.889-1.07-.889-1.154 0-.045-.124-.257-.276-.47-.151-.213-.235-.428-.186-.477s.005-.09-.098-.09-.148-.038-.1-.086-.01-.183-.128-.3c-.118-.119-.183-.332-.146-.475s.016-.227-.047-.188c-.064.04-.142-.008-.175-.105s-.09.026-.127.272-.022.42.032.387c.055-.034.143.227.196.58.052.353.281 1.043.508 1.532 1.257 2.717 3.235 4.606 6.547 6.252 1.317.655 1.71.912 1.657 1.083-.039.124-.22.64-.404 1.146-.299.823-.323 1.049-.228 2.13.06.69.2 1.353.324 1.542.12.183.175.375.123.426-.051.052-.02.094.07.094s.163.1.163.221c0 .343 1.546 1.807 2.32 2.197 2.418 1.22 5.372.467 7.008-1.787.224-.309.46-.6.525-.647.064-.047.112-.141.106-.21-.024-.256.162-1.035.248-1.036.16-.002.166-1.436.01-2.297-.084-.461-.272-1.072-.417-1.358-.308-.604-.274-.65.777-1.036 1.043-.382 2.836-1.393 3.974-2.24.196-.146 2.08-2.047 2.468-2.49.282-.324 1.332-2.364 1.333-2.59 0-.097.047-.176.105-.176s.118-.141.133-.315c.015-.173.089-.63.164-1.015.294-1.501.328-1.857.19-1.943-.079-.048-.18.012-.227.134m-27.743.099c.052.138.13.215.174.172s0-.156-.096-.25c-.138-.138-.154-.122-.078.078M16.65 17.38c.804.334 1.17.663 1.576 1.416.469.87.518 2.022.124 2.89-.269.591-1.155 1.47-1.483 1.47-.106 0-.219.075-.25.168-.037.111-.413.171-1.097.175-.865.006-1.136-.051-1.602-.337-1.2-.735-1.68-1.572-1.65-2.879.03-1.34.598-2.2 1.911-2.894.541-.286 1.793-.29 2.471-.009" clip-rule="evenodd"/><path fill="#3F8A68" fill-rule="evenodd" d="M29.344 6.287c-.138.36-.095.569.07.338.112-.159.129-.093.066.27-.047.265-.178.586-.293.713-.115.126-.172.267-.127.312.136.136-.779 1.66-1.589 2.646-1.203 1.466-3.275 2.815-5.216 3.397a1.2 1.2 0 0 0-.212.111c-.25.16-1.79.505-2.94.658-1.636.219-5.782.183-7.355-.062-1.439-.224-2.588-.5-2.748-.66-.055-.056-.207-.1-.336-.1-.412 0-2.662-1.24-3.587-1.975-.841-.67-2.155-2.067-2.155-2.292 0-.057-.124-.278-.276-.491-.151-.213-.235-.428-.186-.477s.005-.09-.098-.09-.148-.038-.1-.086-.01-.183-.128-.3c-.118-.119-.183-.332-.146-.475s.016-.227-.047-.188c-.064.04-.142-.008-.175-.105s-.09.026-.127.272-.022.42.032.387c.055-.034.143.227.196.58.052.353.281 1.043.508 1.532 1.257 2.717 3.235 4.606 6.547 6.252 1.325.659 1.71.91 1.653 1.083-.04.124-.22.656-.4 1.182-.984 2.887.803 6.146 3.815 6.958 2.21.597 4.582-.267 5.965-2.171.224-.309.46-.6.525-.647.064-.047.112-.141.106-.21-.024-.256.162-1.035.248-1.036.16-.002.166-1.436.01-2.297-.084-.461-.272-1.072-.417-1.358-.29-.568-.226-.703.427-.896.87-.256 3.388-1.659 4.402-2.452.26-.202 1.947-1.91 2.39-2.419.283-.324 1.332-2.364 1.333-2.59 0-.096.047-.175.105-.175s.118-.141.133-.315c.015-.173.089-.63.164-1.015.294-1.501.328-1.857.19-1.943-.079-.048-.18.012-.227.134m-27.743.099c.052.138.13.215.174.172s0-.156-.096-.25c-.138-.138-.154-.122-.078.078M17.119 17.6c.92.54 1.49 1.553 1.492 2.652.002 1.313-.458 2.135-1.61 2.876-.798.514-2.27.53-3.082.033-1.2-.735-1.68-1.572-1.65-2.879.03-1.339.504-2.094 1.757-2.806.832-.473 2.165-.42 3.093.124" clip-rule="evenodd"/><path fill="#599952" fill-rule="evenodd" d="M29.327 6.353c-.052.161-.056.33-.01.376.045.046.089-.006.096-.116.008-.109.065-.04.126.152.108.335.113.33.127-.097.016-.527-.206-.734-.34-.315M1.6 6.386c.052.138.13.216.174.173s0-.156-.096-.252c-.138-.137-.154-.12-.078.079m27.332 2.228c-.497 1.3-2.527 3.513-3.871 4.22l-1.233.65c-.328.173-.747.324-.932.335-.184.012-.31.063-.277.114.077.126-1.028.473-2.396.752-.864.176-1.94.229-4.693.229-3.113 0-3.735-.038-4.834-.29-1.79-.412-1.898-.449-1.798-.612.055-.088.022-.103-.083-.038-.232.143-1.997-.61-1.878-.802.053-.086.023-.104-.073-.045-.195.12-1.81-.94-2.612-1.714-.857-.828-1.497-1.69-1.387-1.869.056-.09.038-.122-.041-.073-.077.047-.31-.21-.516-.574l-.375-.66.094.56c.117.705.994 2.473 1.658 3.343.278.364.462.732.41.817-.056.09-.033.116.056.061.153-.094.375.141.38.401 0 .077.064.14.142.14s.534.33 1.016.73c.482.402 1.16.896 1.506 1.1.346.202.63.43.63.504s.063.096.14.048.14-.02.14.062c0 .081.047.136.105.12.057-.015.389.104.735.264.347.16.871.375 1.165.479.79.279.828.395.415 1.253-.489 1.014-.604 2.727-.255 3.807.213.66 1.122 2.214 1.36 2.323.05.023.233.165.406.315s.371.273.441.273.087.064.038.143c-.049.08-.036.13.027.113.172-.047.746.168.746.278 0 .053.216.111.479.13s.657.105.875.191c.436.173 1.308.246 1.308.11 0-.048.34-.154.756-.238.995-.2 2.007-.838 2.8-1.767.828-.969 1.193-1.835 1.297-3.078.07-.853.03-1.146-.289-2.046-.204-.578-.385-1.135-.402-1.238-.018-.113.333-.329.881-.542 1.055-.41 1.123-.44 1.961-.909 1.138-.635 1.938-1.233 3.059-2.288.608-.572 1.13-1.025 1.16-1.008s.043.01.03-.017c-.014-.026.281-.514.654-1.086.373-.571.846-1.543 1.051-2.16.403-1.207.421-1.852.024-.81m-12.91 8.515c-.05.08.007.103.133.055.249-.096 1.197.311 1.197.514 0 .073.08.133.179.133.217 0 .56.387.896 1.01.176.324.25.773.251 1.512.001.9-.051 1.13-.366 1.61-1.348 2.054-3.668 2.333-5.297.638-.543-.566-.988-1.577-.985-2.238.003-.563.156-.997.316-.898.087.054.104.022.04-.08-.227-.369.491-1.501.831-1.309.078.044.098.031.044-.029-.159-.176.654-.81 1.225-.954.52-.132 1.624-.106 1.536.036" clip-rule="evenodd"/><path fill="#3F8A68" fill-rule="evenodd" d="M29.327 6.353c-.052.161-.056.33-.01.376.045.046.089-.006.096-.116.008-.109.065-.04.126.152.108.335.113.33.127-.097.016-.527-.206-.734-.34-.315M1.6 6.386c.052.138.13.216.174.173s0-.156-.096-.252c-.138-.137-.154-.12-.078.079" clip-rule="evenodd"/><path fill="#3F8A68" fill-rule="evenodd" d="M29.308 6.42c-.046.12-.044.256.004.304s.094-.002.101-.11c.008-.11.065-.042.127.15.106.333.112.327.126-.104.014-.47-.212-.621-.358-.24" clip-rule="evenodd"/></svg>
